NotoEmoji/emoji_u1f463.svg

<?xml version="1.0" encoding="utf-8"?>
<!-- Generator: Adobe Illustrator 25.2.3, SVG Export Plug-In . SVG Version: 6.00 Build 0)  -->
<svg version="1.1" id="Layer_1" xmlns="http://www.w3.org/2000/svg" xmlns:xlink="http://www.w3.org/1999/xlink" x="0px" y="0px"
	 viewBox="0 0 128 128" style="enable-background:new 0 0 128 128;" xml:space="preserve">
<path style="fill:#176BC6;" d="M49.1,27.3c10.3,15.2-4.7,31.2-3.4,38.1c2.3,12.2,12.1,18.2,2.9,30.5c-1.5,2-8.3,6.7-18,1
	C20.2,90.8,6.48,51.8,12.83,35.39C19.42,18.38,42.8,18.1,49.1,27.3z"/>
<path style="fill:#176BC6;" d="M49.9,24.3c-4.6-3-3.1-24.5,9.8-17S54.5,27.3,49.9,24.3z"/>
<path style="fill:#176BC6;" d="M38.3,17.9c-4.1-1-6.2-15.4,3-13.6S42.4,18.9,38.3,17.9z"/>
<path style="fill:#176BC6;" d="M28.8,17.55c-2.5,0.7-12.4-8.9-3.2-11.9C34.4,2.75,31.3,16.85,28.8,17.55z"/>
<path style="fill:#176BC6;" d="M20.2,21.2c-2.5,1.5-12.2-5.5-5.8-9.9C20.5,7.3,22.7,19.7,20.2,21.2z"/>
<path style="fill:#176BC6;" d="M13.9,27.05c-1.9,2.5-10.3-1.6-7-5.9S15.8,24.55,13.9,27.05z"/>
<path style="fill:#176BC6;" d="M78.1,51.8C67.8,67,82.8,83,81.5,89.9c-2.3,12.2-12.1,18.2-2.9,30.5c1.5,2,8.3,6.7,18,1
	c10.4-6.1,23.56-48.07,18.4-62.2C109.16,43.23,84.4,42.6,78.1,51.8z"/>
<path style="fill:#176BC6;" d="M77.3,48.8c4.6-3,3.1-24.5-9.8-17S72.7,51.8,77.3,48.8z"/>
<path style="fill:#176BC6;" d="M88.9,42.4c4.1-1,6.2-15.4-3-13.6S84.8,43.4,88.9,42.4z"/>
<path style="fill:#176BC6;" d="M98.15,42.3c2.5,0.7,12.3-8.9,3.2-11.9C92.55,27.5,95.65,41.6,98.15,42.3z"/>
<path style="fill:#176BC6;" d="M107,45.7c2.5,1.5,12.2-5.5,5.8-9.9C106.7,31.8,104.5,44.2,107,45.7z"/>
<path style="fill:#176BC6;" d="M113.65,51.3c1.9,2.5,10.3-1.6,7-5.9C117.25,41.1,111.65,48.8,113.65,51.3z"/>
</svg>

<svg enable-background="new 0 0 128 128" viewBox="0 0 128 128" xmlns="http://www.w3.org/2000/svg"><g fill="#176bc6"><path d="m49.1 27.3c10.3 15.2-4.7 31.2-3.4 38.1 2.3 12.2 12.1 18.2 2.9 30.5-1.5 2-8.3 6.7-18 1-10.4-6.1-24.12-45.1-17.77-61.51 6.59-17.01 29.97-17.29 36.27-8.09z"/><path d="m49.9 24.3c-4.6-3-3.1-24.5 9.8-17s-5.2 20-9.8 17z"/><path d="m38.3 17.9c-4.1-1-6.2-15.4 3-13.6s1.1 14.6-3 13.6z"/><path d="m28.8 17.55c-2.5.7-12.4-8.9-3.2-11.9 8.8-2.9 5.7 11.2 3.2 11.9z"/><path d="m20.2 21.2c-2.5 1.5-12.2-5.5-5.8-9.9 6.1-4 8.3 8.4 5.8 9.9z"/><path d="m13.9 27.05c-1.9 2.5-10.3-1.6-7-5.9s8.9 3.4 7 5.9z"/><path d="m78.1 51.8c-10.3 15.2 4.7 31.2 3.4 38.1-2.3 12.2-12.1 18.2-2.9 30.5 1.5 2 8.3 6.7 18 1 10.4-6.1 23.56-48.07 18.4-62.2-5.84-15.97-30.6-16.6-36.9-7.4z"/><path d="m77.3 48.8c4.6-3 3.1-24.5-9.8-17s5.2 20 9.8 17z"/><path d="m88.9 42.4c4.1-1 6.2-15.4-3-13.6s-1.1 14.6 3 13.6z"/><path d="m98.15 42.3c2.5.7 12.3-8.9 3.2-11.9-8.8-2.9-5.7 11.2-3.2 11.9z"/><path d="m107 45.7c2.5 1.5 12.2-5.5 5.8-9.9-6.1-4-8.3 8.4-5.8 9.9z"/><path d="m113.65 51.3c1.9 2.5 10.3-1.6 7-5.9-3.4-4.3-9 3.4-7 5.9z"/></g></svg>
